src/lib/packages/icons/src/assets/filled/activity-notification-circle.svg

<svg width="24" height="24" viewBox="0 0 24 24" fill="none" xmlns="http://www.w3.org/2000/svg">
<path d="M20.976 7.599C20.915 7.475 20.777 7.41494 20.641 7.43994C20.032 7.55294 19.377 7.51799 18.678 7.23499C17.77 6.86699 17.042 6.10498 16.711 5.18298C16.479 4.53498 16.455 3.92603 16.561 3.35803C16.586 3.22303 16.526 3.08502 16.403 3.02502C15.074 2.37102 13.578 2.00098 12.001 2.00098C6.38601 2.00098 1.84701 6.63589 2.00501 12.2859C2.15001 17.5029 6.49901 21.8511 11.716 21.9971C17.366 22.1541 22.001 17.616 22.001 12.001C22 10.423 21.63 8.928 20.976 7.599ZM17.53 10.53L14.737 13.323C14.056 14.005 12.945 14.006 12.263 13.324L10.674 11.739C10.576 11.641 10.418 11.641 10.32 11.739L7.52901 14.53C7.38301 14.676 7.191 14.75 6.999 14.75C6.807 14.75 6.615 14.677 6.469 14.53C6.176 14.237 6.176 13.762 6.469 13.469L9.26 10.678C9.942 9.99598 11.052 9.996 11.734 10.677L13.323 12.262C13.421 12.359 13.579 12.359 13.677 12.262L16.47 9.46899C16.763 9.17599 17.238 9.17599 17.531 9.46899C17.824 9.76199 17.823 10.237 17.53 10.53ZM22 4C22 5.105 21.105 6 20 6C18.895 6 18 5.105 18 4C18 2.895 18.895 2 20 2C21.105 2 22 2.895 22 4Z" fill="currentColor"/>
</svg>

<svg xmlns="http://www.w3.org/2000/svg" width="24" height="24" fill="none"><path fill="currentColor" d="M20.976 7.599a.306.306 0 0 0-.335-.16 3.441 3.441 0 0 1-1.963-.204 3.517 3.517 0 0 1-1.967-2.052 3.44 3.44 0 0 1-.15-1.825.304.304 0 0 0-.158-.333 9.95 9.95 0 0 0-4.402-1.024c-5.615 0-10.154 4.635-9.996 10.285.145 5.217 4.494 9.565 9.711 9.711 5.65.157 10.285-4.381 10.285-9.996a9.961 9.961 0 0 0-1.025-4.402ZM17.53 10.53l-2.793 2.793a1.752 1.752 0 0 1-2.474.001l-1.589-1.585a.25.25 0 0 0-.354 0L7.529 14.53a.748.748 0 0 1-1.06 0 .75.75 0 0 1 0-1.061l2.791-2.791a1.752 1.752 0 0 1 2.474-.001l1.589 1.585a.252.252 0 0 0 .354 0l2.793-2.793a.75.75 0 1 1 1.06 1.061ZM22 4a2 2 0 1 1-3.999.001A2 2 0 0 1 22 4Z"/></svg>
